X:1
T:Un cavalier di Spagna
T:Un cavalier di Spagna
T:Francesco Patavino
C:Francesco Patavino
%%score [ 1 2 3 4 ]
L:1/8
Q:1/4=96
M:4/4
K:F
V:1 treble nm="Soprano" snm="S"
V:2 treble nm="Alto" snm="A"
V:3 treble-8 nm="Tenor" snm="T"
V:4 bass nm="Bass" snm="B"
V:1
 z8 | z8 | z2 B2 B2 B2 | A2 G4 ^F2 | G2 A2 A2 A2 | G2 G2 E4 | F2 D2 G2 ^F2 | G2 A2 B4- | %8
w: ||ca- val- ca|per la vi-|a, dal pe d'u-|na mon- ta-|gna can- tan- do|per a- mor|
 B2 AG A2 B2- | B2 A2 B4 | G4 z2 D2 | G2 F2 G2 A2 | B4- B2 AG | G2 A4 A2 | B4 G4 | z2 G2 G2 G2 | %16
w: _ d'u- * * na|_ fan- ti-|na vol-|tat' in qua do|bel- * la _|don- * zel-|li- na|vol- ta- ti\_un|
 G2 G2 A4 | B2 G4 ^F2 ||[M:3/4] G4 G2 | G2 G2 G2 | ^F4 F2 | G4 G2 | A2 A2 A2 | G4 G2 | ^F6- | F6 |: %26
w: po- co\_a me|per cor- te-|si- a,|dol- ce spe-|ran- za|mi- a|ch'io mo- ro|per a-|mor|_|
[M:4/4] B2 B4 B2 | A4 A4 | B2 G2 G2 ^F2 | G4 z4 :| %30
w: bel- la fan-|ti- na\_i|t'ho do- na- to\_il|cor.|
V:2
 z8 | z8 | z2 F2 F2 F2 | F2 D2 D4 | D2 F2 F2 F2 | D2 D2 G4 | D2 F2 C2 D2 | D2 F4 F2- | F2 E2 F4 | %9
w: ||ca- val- ca|per la vi-|a, dal pe d'u-|na mon- ta-|gna can- tan- do|per a- mor|_ d'u- na|
 F4 D4 | _E4 z2 F2 | C2 D2 D2 F2- | F2 F4 E2 | F4 F4 | D4 _E4 | z2 _E2 E2 E2 | _E2 D2 F4 | %17
w: fan- ti-|na vol-|tat' in qua do|_ bel- la|don- zel-|li- na|vol- ta- ti\_un|po- co\_a me|
 D2 _E2 D2 D2 ||[M:3/4] D4 D2 | D2 D2 D2 | D4 D2 | D4 D2 | F2 F2 F2 | D4 D2 | D6- | D6 |: %26
w: per cor- * te-|si- a,|dol- ce spe-|ran- za|mi- a|ch'io mo- ro|per a-|mor|_|
[M:4/4] F2 F4 F2 | F4 F4 | D2 E2 D2 D2 | D4 z4 :| %30
w: bel- la fan-|ti- na\_i|t'ho do- na- to\_il|cor.|
V:3
 G4 B2 B2 | c2 c2 d4 | G2 d2 d2 d2 | c2 B2 A4 | G2 c2 c2 A2 | B2 B2 c4 | A2 B2 G2 A2 | B2 c2 d4 | %8
w: Un ca- va-|lier di Spa-|gna ca- val- ca|per la vi-|a, dal pe d'u-|na mon- ta-|gna can- tan- do|per a- mor|
 B4 c4 | c4 B4 | B4 z2 B2 | G2 A2 B2 c2 | d4 B4 | c4 c4 | B4 B4 | z2 B2 B2 B2 | B2 B2 c4 | %17
w: d'u- na|fan- ti-|na vol-|tat' in qua do|bel- la|don- zel-|li- na|vol- ta- ti\_un|po- co\_a me|
 B2 (c2 A2) A2 ||[M:3/4] G4 G2 | B2 B2 G2 | A4 A2 | G4 G2 | c2 c2 c2 | B4 B2 | A6- | A6 |: %26
w: per cor- * te-|si- a,|dol- ce spe-|ran- za|mi- a|ch'io mo- ro|per a-|mor|_|
[M:4/4] d2 d4 d2 | c4 c4 | B2 c2 A2 A2 | G4 z4 :| %30
w: bel- la fan-|ti- na\_i|t'ho do- na- to\_il|cor.|
V:4
 z8 | z8 | z2 B,2 B,2 B,2 | F,2 G,2 D,4 | G,2 F,2 F,2 F,2 | G,2 G,2 C,4 | D,2 B,,2 _E,2 D,2 | %7
w: ||ca- val- ca|per la vi-|a, dal pe d'u-|na mon- ta-|gna can- tan- do|
 G,2 F,2 B,4 | G,4 F,4 | F,4 B,,4 | _E,4 z2 B,,2 | _E,2 D,2 G,2 F,2 | B,4 F,4 | F,4 F,4 | %14
w: per a- mor|d'u- na|fan- ti-|na vol-|tat' in qua do|bel- la|don- zel-|
 B,,4 _E,4 | z2 _E,2 E,2 E,2 | _E,2 G,2 F,4 | G,2 (C,2 D,2) D,2 ||[M:3/4] G,4 G,2 | G,2 G,2 G,2 | %20
w: li- na|vol- ta- ti\_un|po- co\_a me|per cor- * te-|si- a,|dol- ce spe-|
 D,4 D,2 | G,4 G,2 | F,2 F,2 F,2 | G,4 G,2 | D,6- | D,6 |:[M:4/4] B,2 B,4 B,2 | F,4 F,4 | %28
w: ran- za|mi- a|ch'io mo- ro|per a-|mor|_|bel- la fan-|ti- na\_i|
 G,2 C,2 D,2 D,2 | G,,4 z4 :| %30
w: t'ho do- na- to\_il|cor.|

